X: 57
T:Alborada Galega
M:2/4
L:1/16
Q:200
C:Pascual Veiga
R:Alborada
K:C
G4- GFED | C4- CDEF | G6 AB | c6 BA | GAFG EFGA | GAFG EFDE |CDEF DCB,D
| C6 G2 | c4 BcAB |G4 E2G2 | c4 BcAB | G6 E2 | FGAG FEDF |E3F G2E2 |  FG
AG FEDF | E6 G2 c4 BcAB |
G4 E2G2 | c4 BcAB| G6 E2 | FGAG FEDF |E3F G2C2 | DEFE DCB,D |: C6 G2 |F3
E D2F2 | E3F G2C2 | D3C B,CDB, :||: C6 G2 | FGFE D2F2 | EDEF G2C2 | DEFE
 DCB,D :| C4 E2D2 C3D EFEC | D2G2 C2E2 |
D3C B,BAB | G4 |: E2G2 | {C}G2"F."cG FEFD | G2E"F."c E2G2 | {C}G2"F."cG
FEFD | C4:| EDCE | D2G2 DCB,D | C2c"F."g cBAc | B2G2 AGFA | G4 DEFD |
E2G2 DEFD | E2 DEFD |ECDE FGAB | c8

